assets/img/home/red-blue-line.svg

<?xml version="1.0" encoding="UTF-8" standalone="no"?>
<!-- Generator: Adobe Illustrator 22.0.1, SVG Export Plug-In . SVG Version: 6.00 Build 0)  -->

<svg
   xmlns:dc="http://purl.org/dc/elements/1.1/"
   xmlns:cc="http://creativecommons.org/ns#"
   xmlns:rdf="http://www.w3.org/1999/02/22-rdf-syntax-ns#"
   xmlns:svg="http://www.w3.org/2000/svg"
   xmlns="http://www.w3.org/2000/svg"
   xmlns:sodipodi="http://sodipodi.sourceforge.net/DTD/sodipodi-0.dtd"
   xmlns:inkscape="http://www.inkscape.org/namespaces/inkscape"
   version="1.1"
   id="Layer_1"
   x="0px"
   y="0px"
   viewBox="0 0 5125 6646.7"
   style="enable-background:new 0 0 5125 6646.7;"
   xml:space="preserve"
   inkscape:version="0.91 r13725"
   sodipodi:docname="red-blue-line.svg"><metadata
     id="metadata15"><rdf:RDF><cc:Work
         rdf:about=""><dc:format>image/svg+xml</dc:format><dc:type
           rdf:resource="http://purl.org/dc/dcmitype/StillImage" /></cc:Work></rdf:RDF></metadata><defs
     id="defs13" /><sodipodi:namedview
     pagecolor="#ffffff"
     bordercolor="#666666"
     borderopacity="1"
     objecttolerance="10"
     gridtolerance="10"
     guidetolerance="10"
     inkscape:pageopacity="0"
     inkscape:pageshadow="2"
     inkscape:window-width="1865"
     inkscape:window-height="1056"
     id="namedview11"
     showgrid="false"
     inkscape:zoom="0.20085419"
     inkscape:cx="2316.3557"
     inkscape:cy="5268.7755"
     inkscape:window-x="55"
     inkscape:window-y="24"
     inkscape:window-maximized="1"
     inkscape:current-layer="Layer_1" /><style
     type="text/css"
     id="style3">
	.st0{fill:#07074E;stroke:#07074E;stroke-width:40;stroke-miterlimit:10;}
	.st1{fill:#910811;stroke:#910811;stroke-width:30;stroke-miterlimit:10;}
</style><title
     id="title5">blue-line</title><path
     class="st0"
     d="M1742,2399.2L2940.4,4475L1742,6550.8H-654.8L-1853.3,4475l1198.5-2075.7L1742,2399.2 M1759.4,2369.3H-672.2  L-1887.9,4475l1215.7,2105.8h2431.5l1215.8-2105.7L1759.4,2369.3L1759.4,2369.3L1759.4,2369.3z"
     id="path7" /><path
     class="st1"
     d="m 5571.5,-15.2 1198.4,2075.7 -1198.4,2075.8 -2396.9,0 -1198.5,-2075.8 1198.5,-2075.7 2396.9,0 m 17.4,-30 -2431.7,0 -1215.7,2105.7 1215.7,2105.8 2431.5,0 1215.8,-2105.7 -1215.6,-2105.8 0,0 0,0 z"
     id="path9"
     inkscape:connector-curvature="0"
     style="fill:#910811;stroke:#910811;stroke-width:30;stroke-miterlimit:10" /></svg>

<svg xmlns="http://www.w3.org/2000/svg" viewBox="0 0 5125 6646.7" enable-background="new 0 0 5125 6646.7"><style id="style3" type="text/css">.st0{fill:#07074E;stroke:#07074E;stroke-width:40;stroke-miterlimit:10;} .st1{fill:#910811;stroke:#910811;stroke-width:30;stroke-miterlimit:10;}</style><title id="title5">blue-line</title><path id="path7" d="M1742 2399.2L2940.4 4475 1742 6550.8H-654.8L-1853.3 4475l1198.5-2075.7 2396.8-.1m17.4-29.9H-672.2L-1887.9 4475l1215.7 2105.8h2431.5l1215.8-2105.7-1215.7-2105.8z" class="st0"/><path id="path9" fill="#910811" stroke="#910811" stroke-width="30" stroke-miterlimit="10" d="M5571.5-15.2l1198.4 2075.7-1198.4 2075.8H3174.6L1976.1 2060.5 3174.6-15.2h2396.9m17.4-30H3157.2L1941.5 2060.5l1215.7 2105.8h2431.5l1215.8-2105.7L5588.9-45.2z" class="st1"/></svg>
